logos/appbaseio-icon.svg

<?xml version="1.0" encoding="UTF-8"?>
<svg width="256px" height="256px" viewBox="0 0 256 256" version="1.1" xmlns="http://www.w3.org/2000/svg" xmlns:xlink="http://www.w3.org/1999/xlink" preserveAspectRatio="xMidYMid">
    <g>
        <path d="M127.997452,0 C198.689305,0 256.005096,57.3035408 256,128 C256,198.686263 198.684209,256 127.997452,256 C57.3106949,256 0,198.686263 0,128 C0,57.3035408 57.3106949,0 127.997452,0 Z M127.997452,7.12725535 C61.2343399,7.12725535 7.13389996,61.2444338 7.13389996,128 C7.13389996,194.735173 61.2343399,248.867646 127.997452,248.867646 C194.735086,248.867646 248.8661,194.735173 248.8661,128 C248.8661,61.2444338 194.735086,7.12725535 127.997452,7.12725535 Z M114.218834,78.3743179 C124.150242,78.3743179 132.216644,86.4396383 132.216644,96.3963835 C132.216644,97.2222886 132.130019,98.0583901 132.028106,98.8893934 L132.028106,98.8893934 L172.477318,110.01872 C174.683732,106.730394 178.434125,104.568766 182.668604,104.568766 C189.481479,104.568766 194.969486,110.054407 194.974582,116.840084 C194.974582,123.615565 189.476383,129.116501 182.668604,129.116501 C178.530942,129.116501 174.851888,127.036444 172.640379,123.875573 L172.640379,123.875573 L122.952766,149.906879 C124.348972,153.072848 125.133701,156.544709 125.133701,160.2103 C125.133701,174.38324 113.632835,185.864341 99.4822349,185.864341 C85.3112522,185.864341 73.8409602,174.38324 73.8409602,160.2103 C73.8409602,146.057753 85.3112522,134.576652 99.4822349,134.576652 C101.372718,134.576652 103.186767,134.780579 104.94986,135.162943 L104.94986,135.162943 L108.419992,113.414108 C101.316666,110.99757 96.2108322,104.278169 96.2108322,96.3963835 C96.2108322,86.4396383 104.272139,78.3743179 114.218834,78.3743179 Z M130.896873,103.10049 C128.25733,109.707731 121.790959,114.377664 114.218834,114.377664 C113.683791,114.377664 113.19461,114.357271 112.690141,114.316485 L112.690141,114.316485 L109.148669,136.473175 C113.958956,138.430876 118.025279,141.800773 120.863552,146.078146 L120.863552,146.078146 L170.811043,119.909189 C170.561357,118.915044 170.408487,117.890309 170.408487,116.829888 C170.408487,115.866332 170.540974,114.943562 170.724417,114.056478 L170.724417,114.056478 Z" fill="#232E44"></path>
    </g>
</svg>

<svg width="256" height="256" xmlns="http://www.w3.org/2000/svg" preserveAspectRatio="xMidYMid">
	<path d="M127.997 0C198.69 0 256.005 57.304 256 128c0 70.686-57.316 128-128.003 128C57.311 256 0 198.686 0 128 0 57.304 57.31 0 127.997 0Zm0 7.127C61.234 7.127 7.134 61.244 7.134 128c0 66.735 54.1 120.868 120.863 120.868 66.738 0 120.87-54.133 120.87-120.868 0-66.756-54.132-120.873-120.87-120.873ZM114.22 78.374c9.931 0 17.998 8.066 17.998 18.022 0 .826-.087 1.662-.189 2.493l40.45 11.13c2.206-3.289 5.956-5.45 10.19-5.45 6.813 0 12.301 5.485 12.307 12.271 0 6.776-5.499 12.277-12.306 12.277-4.138 0-7.817-2.08-10.029-5.241l-49.687 26.03a25.432 25.432 0 0 1 2.18 10.304c0 14.173-11.5 25.654-25.65 25.654-14.172 0-25.642-11.48-25.642-25.654 0-14.152 11.47-25.633 25.641-25.633 1.89 0 3.705.204 5.468.586l3.47-21.749c-7.103-2.416-12.21-9.136-12.21-17.018 0-9.956 8.062-18.022 18.009-18.022Zm16.678 24.726a17.946 17.946 0 0 1-16.678 11.278c-.535 0-1.024-.02-1.529-.062l-3.541 22.157a25.7 25.7 0 0 1 11.715 9.605l49.947-26.169a12.596 12.596 0 0 1-.403-3.08c0-.963.133-1.885.316-2.773Z" fill="#232E44"/>
</svg>
